X:658
T:Gallagher's frolic
T:O'Gallagher's frolics
R:Jig
O:Ireland
B:O'Neill's 1008
B:Richard Darsie's web page
S:My arrangement from various sources
Z:Transcription, arrangement, chords:Mike Long
M:6/8
L:1/8
K:G
D|\
"Em"E2F GFE|"G"BAB dBA|BcB B2A|"D"GBG AFD|\
"Em"E2F GFE|"G"BAB dBA|"G"BAG "D"FEF|"Em"GEE E2:|
|:B|\
"Em"e2f gfe|"G"g2a bag|"D"dfg afd|"Bm"afd fed|\
"Em"efe gfe|"D"dfe dBA|"G"BAG "D"FEF|"Em"GEE E2:|
